X:1
T:Title
%%score { 1 | 2 }
L:1/8
M:4/4
K:F
V:1 treble nm="Grand Piano"
V:2 bass 
V:1
 z4 z2[Q:1/4=94] [B,D][C_E] | [DF]2 [Fd]>[E^c] [Fd]2 [DB][DA] | c2 G>^F G2 BB | A2 _E>E E2 GA | %4
 [DG]2 [DF]>[DE] [DF]2 [B,D][C_E] | [DF]2 [Fd]>[E^c] [Fd]2 [DB][DA] | c2 G>^F G2 AB | %7
 F2 F>F B2 Bc |[M:3/4] [FBd]2 [_EAc]>[EAc] [DFB]2 |[M:1/4] [DF]2 | %10
[M:4/4] [Fd] [Fd]2 [E^c] [Fd]2 [DB][DB] | c B2 G [DF]2 [DF][DF] | [Fd] [Fd]2 [E^c] [Fd]2 [DB][DB] | %13
 [Ec][EB]AB c2 F2 | [Fd] [Fd]2 [E^c] [Fd]2 [DB][DB] | c B2 G [DF]2 [DF]2 | GABc dBAG | %17
[M:3/4] F2 c2 [DB]2 |] %18
V:2
 z4 z2 [B,,F,][B,,F,] | [B,,B,]2 [B,,B,]>[B,,B,] [B,,B,]2 [B,,B,][B,,B,] | %2
 [_E,G,_E]2 [E,B,E]>[E,A,E] [E,B,E]2 [E,G,E][E,G,E] | [F,C_E]2 [F,A,]>[G,B,] [A,C]2 [F,A,E][F,CE] | %4
 [B,,B,]2 [B,,B,]>[B,,B,] [B,,B,]2 [B,,F,][B,,F,] | %5
 [B,,B,]2 [B,,B,]>[B,,B,] [B,,B,]2 [B,,B,][B,,B,] | %6
 [_E,G,_E]2 [E,B,E]>[E,A,E] [E,B,E]2 [=E,B,^C][E,B,C] | %7
 [F,B,D]2 [F,B,D]>[F,B,D] [F,DF]2 [F,DF][F,_EF] |[M:3/4] F,2 F,>F, B,,2 |[M:1/4] [B,,B,]2 | %10
[M:4/4] [B,,B,] [B,,B,]2 [B,,B,] [B,,B,]2 [B,,F,][B,,F,] | %11
 [_E,G,_E] [E,G,E]2 [E,B,E] [B,,B,]2 [B,,B,][B,,B,] | %12
 [B,,B,] [B,,B,]2 [B,,B,] [B,,B,]2 [B,,B,][B,,B,] | %13
 [C,G,][C,C][K:treble][F,CF][G,CE] [A,CF]2[K:bass] [F,A,_E]2 | %14
 [B,,B,] [B,,B,]2 [B,,B,] [B,,B,]2 [B,,F,][B,,F,] | [_E,G,_E] [E,G,E]2 [E,B,E] [B,,B,]2 [B,,B,]2 | %16
 G,A,B,C DB,A,G, |[M:3/4] [F,A,_E]2 [F,A,E]2 [B,,B,]2 |] %18

